src/lib/packages/icons/src/assets/line/paperclip.svg

<svg width="24" height="24" viewBox="0 0 24 24" fill="none" xmlns="http://www.w3.org/2000/svg">
<path d="M10.306 21.75C8.39599 21.75 6.61698 21.021 5.29598 19.697C2.50998 16.903 2.55317 12.314 5.39217 9.46799L11.1202 3.724C12.0672 2.774 13.328 2.25101 14.668 2.25101C16.008 2.25101 17.2691 2.774 18.2161 3.724C20.1701 5.684 20.1701 8.87301 18.2161 10.833L12.46 16.604C11.372 17.696 9.47318 17.697 8.38118 16.604C7.25818 15.478 7.25818 13.646 8.38118 12.52L13.4371 7.45001C13.7301 7.15701 14.2051 7.156 14.4981 7.44901C14.7921 7.741 14.7921 8.21601 14.5001 8.51001L9.44417 13.58C8.90317 14.122 8.90317 15.004 9.44417 15.546C9.96517 16.07 10.877 16.069 11.398 15.546L17.1541 9.77499C18.5261 8.39899 18.5261 6.16 17.1541 4.784C15.8261 3.452 13.5112 3.452 12.1832 4.784L6.45516 10.528C4.23616 12.752 4.19297 16.467 6.35897 18.639C7.39597 19.679 8.79699 20.251 10.306 20.251C11.853 20.251 13.36 19.629 14.442 18.544L19.4691 13.502C19.7611 13.209 20.2361 13.208 20.5301 13.501C20.8241 13.793 20.8241 14.268 20.5321 14.562L15.505 19.604C14.143 20.967 12.248 21.75 10.306 21.75Z" fill="currentColor"/>
</svg>

<svg xmlns="http://www.w3.org/2000/svg" width="24" height="24" fill="none"><path fill="currentColor" d="M10.306 21.75c-1.91 0-3.689-.729-5.01-2.053-2.786-2.794-2.743-7.383.096-10.229l5.728-5.744a4.977 4.977 0 0 1 3.548-1.473c1.34 0 2.601.523 3.548 1.473a5.043 5.043 0 0 1 0 7.109l-5.756 5.771c-1.088 1.092-2.987 1.093-4.079 0a2.896 2.896 0 0 1 0-4.084l5.056-5.07A.75.75 0 0 1 14.5 8.51l-5.056 5.07a1.394 1.394 0 0 0 0 1.966c.521.524 1.433.523 1.954 0l5.756-5.771a3.54 3.54 0 0 0 0-4.991c-1.328-1.332-3.643-1.332-4.97 0l-5.729 5.744c-2.219 2.224-2.262 5.939-.096 8.111 1.037 1.04 2.438 1.612 3.947 1.612a5.875 5.875 0 0 0 4.136-1.707l5.027-5.042a.75.75 0 0 1 1.063 1.06l-5.027 5.042a7.397 7.397 0 0 1-5.199 2.146Z"/></svg>
